outputs/icons/maps/map_round.svg

<svg xmlns="http://www.w3.org/2000/svg" width="1200" height="1200" fill="none"><g clip-path="url(#a)"><path fill="#000" d="m732.5 248.999-250-87.5c-21-7.499-44-7.499-65-.499L218 228c-40.5 14-68 52-68 95v592.5c0 70.5 70.5 118.5 136 93l146.5-57c11-4.5 23.5-4.5 34.5-.5l250 87.5c21 7.5 44 7.5 65 .5l199.5-67c40.5-13.5 68-52 68-95V284.5c0-70.501-70.5-118.5-136-93l-146.5 57c-11 4-23 4.5-34.5.499M750 944.5 450 839V255.499L750 361z"/></g><defs><clipPath id="a"><path fill="#fff" d="M0 0h1200v1200H0z"/></clipPath></defs></svg>

<svg width="1200" height="1200" viewBox="0 0 1200 1200" fill="none" xmlns="http://www.w3.org/2000/svg"><g clip-path="url(#clip0_238_1714)"><path d="M732.5 248.999L482.5 161.499C461.5 154 438.5 154 417.5 161L218 228C177.5 242 150 280 150 323V915.5C150 986 220.5 1034 286 1008.5L432.5 951.5C443.5 947 456 947 467 951L717 1038.5C738 1046 761 1046 782 1039L981.5 972C1022 958.5 1049.5 920 1049.5 877V284.5C1049.5 213.999 979 166 913.5 191.5L767 248.5C756 252.5 744 253 732.5 248.999ZM750 944.5L450 839V255.499L750 361V944.5Z" fill="#1D1E23"/></g><defs><clipPath id="clip0_238_1714"><path width="24" fill="white" d="M0 0H1200V1200H0V0z"/></clipPath></defs></svg>
